X: 42547
T: When Hope Dawns
R: waltz
M: 3/4
K: Cmajor
G,2|E2 E2 E>D|C4 G,G,|F2 F2 E2|D4 G,G,|G4 GG|A2 A3 A|G3 D C2|E4
G,2|E2 E3 F|G2 A2 G2|G F3 C2|A,4 C2|F2 G3 A|G E3 FE|E G,3 B,2|C6|C3||
|:ccB|A2 A2 AB|c2 B3 A|G C3 E2|G4 AG|G D3 D2|G4 AG|G C3 E2|G4 GG|
A2 A2 B2|c2 B3 A|G C3 E2|G4 G,G,|E2 E3 F|E C4 E|D B,3 D2|C6-|C3:|

